!!!Genre:	Gas-nign
!!!Mode:	Minor
!!!Listening/dance:	listening
!!!One_Mode:	yes
**kern
*I"P1
*clefG2
*k[b-e-]
*g:
*M3/4
*>A
=1
(8qg/
4dd)
4gg
8ffL
8ee-J
=2
4dd
4b-
(16qcc/LL
16qdd/JJ
8ccL)
8aJ
=3
(8qcc/
4b-)
4g
8aL
8f#XJ
=4
2g
4r
=5
4d
(16b-LL
16ccJ
8b-J)
8aL
8gJ
=6
4f#X
4g
8aL
8b-J
=7
4.a
8g
8f#XL
8e-J
=8
2d
4r
=9
4cc
4ee-
8aaL
8ggJ
=10
4ff#X
4gg
8ccL
8ee-J
=11
*^
4ryy	4dd
(16ccLL	4cc
16ddJ	.
8ccJ)	.
*v	*v
8b-L
8aJ
=12
(8qdd/
4cc)
4b-
(8aL
8gJ)
=13
4dd
8ffnL
8ee-J
8ddL
8cc#XJ
=14
4dd
8aL
8ccJ
(16qqb-/LL
16qqcc/JJ
8b-L)
8aJ
=15
4g
4dd
8b-L
8ddJ
=16
2g
4r
=17:|!|:
*>bM
*B-:
*>B
!LO:TX:a:i:t=Bb-major
2f
8b-L
8ccJ
=18
8ddL
8ddJ
8ddL
8ddJ
8ffL
8ee-J
=19
4.dd
8cc
(8qee-/
8ddL)
8ccJ
=20
2b-
4r
=21
4ff
4gg
(8aa-XL
8ggJ)
=22
(8qbb-/
(8aa-XL)
8gg'
8ff'
8ee-'
8dd'
8cc'J)
=23
4dd
16ccLL
16dd
16cc
16b-JJ
8ffL
8ee-J
=24
2dd
4r
=25
2f
(8b-L
8ccJ)
=26
8ddL
8ddJ
8ddL
8ddJ
8ffL
8ee-J
=27
4.dd
8cc
(8qee-/
8ddL)
8ccJ
=28
4.b-
8a
(8qb-/
8aL)
8gJ
*g:
!LO:TX:a:i:t=G-minor
=29
(4.dd
16b-LL
16ddJJ)
8ccL
8aJ
=30
4.b-
(16gLL
16b-JJ)
8aL
8f#XJ
=31
4g
4dd
8b-L
8ddJ
*>B1
=32
2.g
*>B2
=:|!
2g
=33||
*>C
4g
=34
4dd
4gg
8ffL
8ee-J
=35
4dd
(8.b-L
16ddJk)
8ccL
8aJ
=36
(8qcc/
4b-)
8.gL
16b-Jk
8aL
8f#XJ
=37
2.g
=38
4d
(16qqb-/LL
16qqcc/JJ
4b-)
8aL
8gJ
=39
4f#X
4g
8aL
8b-J
=40
4.a
8g
(8qg/
8f#XL)
8e-J
=41
2.d
=42
4cc
4ee-
8aaL
8ggJ
=43
4ff#X
4gg
8ccL
8ee-J
=44
4dd
(16ccLL
16ddJ
8ccJ)
8.b-L
16aJk
=45
4cc
4b-
8aL
8gJ
=46
4f#X
8ccL
8ee-J
8ddL
8cc#XJ
=47
4dd
(16gLL
16a
16b-
16ccnJJ
16ddLL
16ee-
16ffn
16ff#XJJ)
=48
4gg
4r
4d
=49
4g
4r
4r
==
*-
